tools/download-figma-icons/icons/solid/lock.svg

<svg width="24" height="24" viewBox="0 0 24 24" fill="none" xmlns="http://www.w3.org/2000/svg">
<path fill-rule="evenodd" clip-rule="evenodd" d="M15.7607 9.2212H8.40847V5.17572C8.40847 3.14923 10.0577 1.49999 12.0849 1.49999C14.1114 1.49999 15.7607 3.14923 15.7607 5.17572V9.2212ZM12.7502 18.4859C12.7502 18.8999 12.4142 19.2359 12.0002 19.2359C11.5862 19.2359 11.2502 18.8999 11.2502 18.4859V14.7359C11.2502 14.3212 11.5862 13.9859 12.0002 13.9859C12.4142 13.9859 12.7502 14.3212 12.7502 14.7359V18.4859ZM18.2994 9.2212H17.2607V5.17572C17.2607 2.32199 14.9387 0 12.0849 0C9.23045 0 6.90846 2.32199 6.90846 5.17572V9.2212H5.70021C4.21147 9.2212 3.00023 10.4324 3.00023 11.9219V21.2991C3.00023 22.7886 4.21147 23.9999 5.70021 23.9999H18.2994C19.7889 23.9999 21.0001 22.7886 21.0001 21.2991V11.9219C21.0001 10.4324 19.7889 9.2212 18.2994 9.2212Z" fill="black"/>
</svg>

<svg width="24" height="24" viewBox="0 0 24 24" fill="none" xmlns="http://www.w3.org/2000/svg"><path fill-rule="evenodd" clip-rule="evenodd" d="M15.76 9.221H8.409V5.176A3.68 3.68 0 0 1 12.085 1.5a3.68 3.68 0 0 1 3.676 3.676V9.22Zm-3.01 9.265a.75.75 0 0 1-1.5 0v-3.75a.75.75 0 1 1 1.5 0v3.75ZM18.3 9.22h-1.04V5.176A5.182 5.182 0 0 0 12.086 0a5.182 5.182 0 0 0-5.177 5.176V9.22H5.7a2.703 2.703 0 0 0-2.7 2.7v9.38C3 22.79 4.211 24 5.7 24h12.6c1.489 0 2.7-1.21 2.7-2.7v-9.377c0-1.49-1.211-2.7-2.7-2.7Z" fill="currentColor"/></svg>
